X:3179
T:June McCormack's #2
O:england
M:2/2
L:1/8
R:Reel
K:D
dA~A2 AGFE|D2BD ADFA|BE~E2 (3Bcd ef|g2fg eafe|
dA~A2 AGFE|D2BD ADFA|BE~E2 (3Bcd eg|fgfe d3A:|
|:dA~A2 AGFG|A2af gfed|Beed ~e3f|g2fg eafe|
dA~A2 AGFG|A2af gfef|defd ~B3d|AFAB d3A:||
